X: 33666
T: Rambling Pitchfork, The
R: jig
M: 6/8
K: Dmajor
E|FDD ADD|dcd AFD|G2A Bgf|efe dBA|
FDD ADD|dcd AGF|G2A BGB|AFD D2E|
FDD ADD|dcd AFD|G2A Bgf|efe dBA|
FDD ADD|dcd AGF|G2A BGB|AFD DFA|
d2e fdf|ecA ABc|d2e f2g|agf edc|
d2e fdf|ecA AGF|G2A BGB|AFD DFA|
d2e fdf|ecA ABc|d2e f2g|agf ede|
agf efe|dBA BAF|G2A BGB|AFD D3|

